images/3234839.svg

<?xml version="1.0" encoding="UTF-8"?>
<svg xmlns="http://www.w3.org/2000/svg" xmlns:xlink="http://www.w3.org/1999/xlink" width="300pt" height="300pt" viewBox="0 0 300 300" version="1.1">
<defs>
<g>
<symbol overflow="visible" id="glyph0-0">
<path style="stroke:none;" d="M 0.546875 1.9375 L 0.546875 -7.75 L 6.046875 -7.75 L 6.046875 1.9375 Z M 1.171875 1.328125 L 5.4375 1.328125 L 5.4375 -7.140625 L 1.171875 -7.140625 Z M 1.171875 1.328125 "/>
</symbol>
<symbol overflow="visible" id="glyph0-1">
<path style="stroke:none;" d="M 4.328125 -7.28125 C 3.546875 -7.28125 2.921875 -6.984375 2.453125 -6.390625 C 1.992188 -5.804688 1.765625 -5.007812 1.765625 -4 C 1.765625 -2.988281 1.992188 -2.1875 2.453125 -1.59375 C 2.921875 -1.007812 3.546875 -0.71875 4.328125 -0.71875 C 5.117188 -0.71875 5.742188 -1.007812 6.203125 -1.59375 C 6.660156 -2.1875 6.890625 -2.988281 6.890625 -4 C 6.890625 -5.007812 6.660156 -5.804688 6.203125 -6.390625 C 5.742188 -6.984375 5.117188 -7.28125 4.328125 -7.28125 Z M 4.328125 -8.171875 C 5.453125 -8.171875 6.351562 -7.789062 7.03125 -7.03125 C 7.707031 -6.28125 8.046875 -5.269531 8.046875 -4 C 8.046875 -2.738281 7.707031 -1.726562 7.03125 -0.96875 C 6.351562 -0.21875 5.453125 0.15625 4.328125 0.15625 C 3.203125 0.15625 2.300781 -0.21875 1.625 -0.96875 C 0.957031 -1.71875 0.625 -2.726562 0.625 -4 C 0.625 -5.269531 0.957031 -6.28125 1.625 -7.03125 C 2.300781 -7.789062 3.203125 -8.171875 4.328125 -8.171875 Z M 4.328125 -8.171875 "/>
</symbol>
<symbol overflow="visible" id="glyph0-2">
<path style="stroke:none;" d="M 1.078125 -8.015625 L 2.546875 -8.015625 L 6.09375 -1.3125 L 6.09375 -8.015625 L 7.15625 -8.015625 L 7.15625 0 L 5.6875 0 L 2.125 -6.703125 L 2.125 0 L 1.078125 0 Z M 1.078125 -8.015625 "/>
</symbol>
<symbol overflow="visible" id="glyph0-3">
<path style="stroke:none;" d="M 1.078125 -8.015625 L 5.6875 -8.015625 L 5.6875 -7.109375 L 2.171875 -7.109375 L 2.171875 -4.75 L 5.34375 -4.75 L 5.34375 -3.828125 L 2.171875 -3.828125 L 2.171875 0 L 1.078125 0 Z M 1.078125 -8.015625 "/>
</symbol>
</g>
</defs>
<g id="surface36549">
<rect x="0" y="0" width="300" height="300" style="fill:rgb(100%,100%,100%);fill-opacity:1;stroke:none;"/>
<path style="fill:none;stroke-width:1.2;stroke-linecap:butt;stroke-linejoin:miter;stroke:rgb(0%,0%,0%);stroke-opacity:1;stroke-miterlimit:10;" d="M 35.25 109.027344 L 42.613281 119.5 "/>
<path style="fill:none;stroke-width:1.2;stroke-linecap:butt;stroke-linejoin:miter;stroke:rgb(100%,0%,0%);stroke-opacity:1;stroke-miterlimit:10;" d="M 42.613281 119.5 L 49.972656 129.972656 "/>
<path style="fill:none;stroke-width:1.2;stroke-linecap:butt;stroke-linejoin:miter;stroke:rgb(100%,0%,0%);stroke-opacity:1;stroke-miterlimit:10;" d="M 49.972656 129.972656 L 62.722656 128.835938 "/>
<path style="fill:none;stroke-width:1.2;stroke-linecap:butt;stroke-linejoin:miter;stroke:rgb(0%,0%,0%);stroke-opacity:1;stroke-miterlimit:10;" d="M 62.722656 128.835938 L 75.472656 127.695312 "/>
<path style=" stroke:none;fill-rule:nonzero;fill:rgb(100%,100%,100%);fill-opacity:1;" d="M 45.972656 123.472656 L 54.972656 123.472656 L 54.972656 136.472656 L 45.972656 136.472656 Z M 45.972656 123.472656 "/>
<g style="fill:rgb(100%,0%,0%);fill-opacity:1;">
  <use xlink:href="#glyph0-1" x="45.972656" y="133.374023"/>
</g>
<path style="fill:none;stroke-width:1.2;stroke-linecap:butt;stroke-linejoin:miter;stroke:rgb(0%,0%,0%);stroke-opacity:1;stroke-miterlimit:10;" d="M 75.472656 127.695312 L 86.25 104.472656 "/>
<path style="fill:none;stroke-width:1.2;stroke-linecap:butt;stroke-linejoin:miter;stroke:rgb(0%,0%,0%);stroke-opacity:1;stroke-miterlimit:10;" d="M 82.015625 127.910156 L 90.636719 109.332031 "/>
<path style="fill:none;stroke-width:1.2;stroke-linecap:butt;stroke-linejoin:miter;stroke:rgb(0%,0%,0%);stroke-opacity:1;stroke-miterlimit:10;" d="M 90.195312 148.640625 L 75.472656 127.695312 "/>
<path style="fill:none;stroke-width:1.2;stroke-linecap:butt;stroke-linejoin:miter;stroke:rgb(0%,0%,0%);stroke-opacity:1;stroke-miterlimit:10;" d="M 86.25 104.472656 L 111.75 102.195312 "/>
<path style="fill:none;stroke-width:1.2;stroke-linecap:butt;stroke-linejoin:miter;stroke:rgb(0%,0%,0%);stroke-opacity:1;stroke-miterlimit:10;" d="M 111.75 102.195312 L 126.472656 123.140625 "/>
<path style="fill:none;stroke-width:1.2;stroke-linecap:butt;stroke-linejoin:miter;stroke:rgb(0%,0%,0%);stroke-opacity:1;stroke-miterlimit:10;" d="M 108.292969 107.753906 L 120.074219 124.507812 "/>
<path style="fill:none;stroke-width:1.2;stroke-linecap:butt;stroke-linejoin:miter;stroke:rgb(0%,0%,0%);stroke-opacity:1;stroke-miterlimit:10;" d="M 126.472656 123.140625 L 115.695312 146.363281 "/>
<path style="fill:none;stroke-width:1.2;stroke-linecap:butt;stroke-linejoin:miter;stroke:rgb(0%,0%,0%);stroke-opacity:1;stroke-miterlimit:10;" d="M 115.695312 146.363281 L 90.195312 148.640625 "/>
<path style="fill:none;stroke-width:1.2;stroke-linecap:butt;stroke-linejoin:miter;stroke:rgb(0%,0%,0%);stroke-opacity:1;stroke-miterlimit:10;" d="M 112.609375 140.589844 L 92.210938 142.414062 "/>
<path style="fill:none;stroke-width:1.2;stroke-linecap:butt;stroke-linejoin:miter;stroke:rgb(0%,0%,0%);stroke-opacity:1;stroke-miterlimit:10;" d="M 115.695312 146.363281 L 130.417969 167.308594 "/>
<path style="fill:none;stroke-width:1.2;stroke-linecap:butt;stroke-linejoin:miter;stroke:rgb(0%,0%,0%);stroke-opacity:1;stroke-miterlimit:10;" d="M 130.417969 167.308594 L 143.167969 166.167969 "/>
<path style="fill:none;stroke-width:1.2;stroke-linecap:butt;stroke-linejoin:miter;stroke:rgb(0%,0%,100%);stroke-opacity:1;stroke-miterlimit:10;" d="M 143.167969 166.167969 L 155.917969 165.027344 "/>
<path style="fill:none;stroke-width:1.2;stroke-linecap:butt;stroke-linejoin:miter;stroke:rgb(0%,0%,100%);stroke-opacity:1;stroke-miterlimit:10;" d="M 155.917969 165.027344 L 163.28125 175.5 "/>
<path style="fill:none;stroke-width:1.2;stroke-linecap:butt;stroke-linejoin:miter;stroke:rgb(0%,0%,0%);stroke-opacity:1;stroke-miterlimit:10;" d="M 163.28125 175.5 L 170.640625 185.972656 "/>
<path style="fill:none;stroke-width:1.2;stroke-linecap:butt;stroke-linejoin:miter;stroke:rgb(0%,0%,0%);stroke-opacity:1;stroke-miterlimit:10;" d="M 166.695312 141.804688 L 161.308594 153.417969 "/>
<path style="fill:none;stroke-width:1.2;stroke-linecap:butt;stroke-linejoin:miter;stroke:rgb(0%,0%,100%);stroke-opacity:1;stroke-miterlimit:10;" d="M 161.308594 153.417969 L 155.917969 165.027344 "/>
<path style=" stroke:none;fill-rule:nonzero;fill:rgb(100%,100%,100%);fill-opacity:1;" d="M 151.917969 158.527344 L 159.917969 158.527344 L 159.917969 171.527344 L 151.917969 171.527344 Z M 151.917969 158.527344 "/>
<g style="fill:rgb(0%,0%,100%);fill-opacity:1;">
  <use xlink:href="#glyph0-2" x="151.917969" y="168.428711"/>
</g>
<path style="fill:none;stroke-width:1.2;stroke-linecap:butt;stroke-linejoin:miter;stroke:rgb(0%,0%,0%);stroke-opacity:1;stroke-miterlimit:10;" d="M 170.640625 185.972656 L 165.253906 197.585938 "/>
<path style="fill:none;stroke-width:1.2;stroke-linecap:butt;stroke-linejoin:miter;stroke:rgb(0%,0%,100%);stroke-opacity:1;stroke-miterlimit:10;" d="M 165.253906 197.585938 L 159.863281 209.195312 "/>
<path style="fill:none;stroke-width:1.2;stroke-linecap:butt;stroke-linejoin:miter;stroke:rgb(0%,0%,0%);stroke-opacity:1;stroke-miterlimit:10;" d="M 175.027344 190.832031 L 170.71875 200.121094 "/>
<path style="fill:none;stroke-width:1.2;stroke-linecap:butt;stroke-linejoin:miter;stroke:rgb(0%,0%,100%);stroke-opacity:1;stroke-miterlimit:10;" d="M 170.71875 200.121094 L 166.40625 209.410156 "/>
<path style="fill:none;stroke-width:1.2;stroke-linecap:butt;stroke-linejoin:miter;stroke:rgb(0%,0%,0%);stroke-opacity:1;stroke-miterlimit:10;" d="M 196.140625 183.695312 L 170.640625 185.972656 "/>
<path style="fill:none;stroke-width:1.2;stroke-linecap:butt;stroke-linejoin:miter;stroke:rgb(0%,0%,100%);stroke-opacity:1;stroke-miterlimit:10;" d="M 159.863281 209.195312 L 167.226562 219.667969 "/>
<path style="fill:none;stroke-width:1.2;stroke-linecap:butt;stroke-linejoin:miter;stroke:rgb(0%,0%,0%);stroke-opacity:1;stroke-miterlimit:10;" d="M 167.226562 219.667969 L 174.585938 230.140625 "/>
<path style=" stroke:none;fill-rule:nonzero;fill:rgb(100%,100%,100%);fill-opacity:1;" d="M 155.863281 202.695312 L 163.863281 202.695312 L 163.863281 215.695312 L 155.863281 215.695312 Z M 155.863281 202.695312 "/>
<g style="fill:rgb(0%,0%,100%);fill-opacity:1;">
  <use xlink:href="#glyph0-2" x="155.863281" y="212.59668"/>
</g>
<path style="fill:none;stroke-width:1.2;stroke-linecap:butt;stroke-linejoin:miter;stroke:rgb(0%,0%,0%);stroke-opacity:1;stroke-miterlimit:10;" d="M 174.585938 230.140625 L 187.335938 229 "/>
<path style="fill:none;stroke-width:1.2;stroke-linecap:butt;stroke-linejoin:miter;stroke:rgb(0%,0%,100%);stroke-opacity:1;stroke-miterlimit:10;" d="M 187.335938 229 L 200.085938 227.863281 "/>
<path style="fill:none;stroke-width:1.2;stroke-linecap:butt;stroke-linejoin:miter;stroke:rgb(0%,0%,0%);stroke-opacity:1;stroke-miterlimit:10;" d="M 176.601562 223.914062 L 186.800781 223 "/>
<path style="fill:none;stroke-width:1.2;stroke-linecap:butt;stroke-linejoin:miter;stroke:rgb(0%,0%,100%);stroke-opacity:1;stroke-miterlimit:10;" d="M 186.800781 223 L 197 222.089844 "/>
<path style="fill:none;stroke-width:1.2;stroke-linecap:butt;stroke-linejoin:miter;stroke:rgb(0%,0%,100%);stroke-opacity:1;stroke-miterlimit:10;" d="M 200.085938 227.863281 L 205.476562 216.25 "/>
<path style="fill:none;stroke-width:1.2;stroke-linecap:butt;stroke-linejoin:miter;stroke:rgb(0%,0%,0%);stroke-opacity:1;stroke-miterlimit:10;" d="M 205.476562 216.25 L 210.863281 204.640625 "/>
<path style=" stroke:none;fill-rule:nonzero;fill:rgb(100%,100%,100%);fill-opacity:1;" d="M 196.085938 221.363281 L 204.085938 221.363281 L 204.085938 234.363281 L 196.085938 234.363281 Z M 196.085938 221.363281 "/>
<g style="fill:rgb(0%,0%,100%);fill-opacity:1;">
  <use xlink:href="#glyph0-2" x="196.085938" y="231.264648"/>
</g>
<path style="fill:none;stroke-width:1.2;stroke-linecap:butt;stroke-linejoin:miter;stroke:rgb(0%,0%,0%);stroke-opacity:1;stroke-miterlimit:10;" d="M 210.863281 204.640625 L 196.140625 183.695312 "/>
<path style="fill:none;stroke-width:1.2;stroke-linecap:butt;stroke-linejoin:miter;stroke:rgb(0%,0%,0%);stroke-opacity:1;stroke-miterlimit:10;" d="M 204.464844 206.007812 L 192.6875 189.253906 "/>
<path style="fill:none;stroke-width:1.2;stroke-linecap:butt;stroke-linejoin:miter;stroke:rgb(0%,0%,0%);stroke-opacity:1;stroke-miterlimit:10;" d="M 196.140625 183.695312 L 201.53125 172.082031 "/>
<path style="fill:none;stroke-width:1.2;stroke-linecap:butt;stroke-linejoin:miter;stroke:rgb(0%,0%,100%);stroke-opacity:1;stroke-miterlimit:10;" d="M 201.53125 172.082031 L 206.917969 160.472656 "/>
<path style="fill:none;stroke-width:1.2;stroke-linecap:butt;stroke-linejoin:miter;stroke:rgb(0%,0%,100%);stroke-opacity:1;stroke-miterlimit:10;" d="M 206.917969 160.472656 L 199.558594 150 "/>
<path style="fill:none;stroke-width:1.2;stroke-linecap:butt;stroke-linejoin:miter;stroke:rgb(0%,0%,0%);stroke-opacity:1;stroke-miterlimit:10;" d="M 199.558594 150 L 192.195312 139.527344 "/>
<path style="fill:none;stroke-width:1.2;stroke-linecap:butt;stroke-linejoin:miter;stroke:rgb(0%,0%,100%);stroke-opacity:1;stroke-miterlimit:10;" d="M 200.519531 161.84375 L 194.628906 153.464844 "/>
<path style="fill:none;stroke-width:1.2;stroke-linecap:butt;stroke-linejoin:miter;stroke:rgb(0%,0%,0%);stroke-opacity:1;stroke-miterlimit:10;" d="M 194.628906 153.464844 L 188.738281 145.085938 "/>
<path style=" stroke:none;fill-rule:nonzero;fill:rgb(100%,100%,100%);fill-opacity:1;" d="M 202.917969 153.972656 L 210.917969 153.972656 L 210.917969 166.972656 L 202.917969 166.972656 Z M 202.917969 153.972656 "/>
<g style="fill:rgb(0%,0%,100%);fill-opacity:1;">
  <use xlink:href="#glyph0-2" x="202.917969" y="163.874023"/>
</g>
<path style="fill:none;stroke-width:1.2;stroke-linecap:butt;stroke-linejoin:miter;stroke:rgb(0%,0%,0%);stroke-opacity:1;stroke-miterlimit:10;" d="M 192.195312 139.527344 L 166.695312 141.804688 "/>
<path style="fill:none;stroke-width:1.2;stroke-linecap:butt;stroke-linejoin:miter;stroke:rgb(0%,0%,0%);stroke-opacity:1;stroke-miterlimit:10;" d="M 192.195312 139.527344 L 202.972656 116.304688 "/>
<path style="fill:none;stroke-width:1.2;stroke-linecap:butt;stroke-linejoin:miter;stroke:rgb(0%,0%,0%);stroke-opacity:1;stroke-miterlimit:10;" d="M 169.160156 140.074219 L 161.796875 129.601562 "/>
<path style="fill:none;stroke-width:1.2;stroke-linecap:butt;stroke-linejoin:miter;stroke:rgb(100%,0%,0%);stroke-opacity:1;stroke-miterlimit:10;" d="M 161.796875 129.601562 L 154.4375 119.128906 "/>
<path style="fill:none;stroke-width:1.2;stroke-linecap:butt;stroke-linejoin:miter;stroke:rgb(0%,0%,0%);stroke-opacity:1;stroke-miterlimit:10;" d="M 164.230469 143.539062 L 156.871094 133.066406 "/>
<path style="fill:none;stroke-width:1.2;stroke-linecap:butt;stroke-linejoin:miter;stroke:rgb(100%,0%,0%);stroke-opacity:1;stroke-miterlimit:10;" d="M 156.871094 133.066406 L 149.507812 122.59375 "/>
<path style=" stroke:none;fill-rule:nonzero;fill:rgb(100%,100%,100%);fill-opacity:1;" d="M 142.972656 114.359375 L 151.972656 114.359375 L 151.972656 127.359375 L 142.972656 127.359375 Z M 142.972656 114.359375 "/>
<g style="fill:rgb(100%,0%,0%);fill-opacity:1;">
  <use xlink:href="#glyph0-1" x="142.972656" y="124.260742"/>
</g>
<path style="fill:none;stroke-width:1.2;stroke-linecap:butt;stroke-linejoin:miter;stroke:rgb(0%,0%,0%);stroke-opacity:1;stroke-miterlimit:10;" d="M 202.972656 116.304688 L 228.472656 114.027344 "/>
<path style="fill:none;stroke-width:1.2;stroke-linecap:butt;stroke-linejoin:miter;stroke:rgb(0%,0%,0%);stroke-opacity:1;stroke-miterlimit:10;" d="M 204.988281 110.078125 L 225.386719 108.253906 "/>
<path style="fill:none;stroke-width:1.2;stroke-linecap:butt;stroke-linejoin:miter;stroke:rgb(0%,0%,0%);stroke-opacity:1;stroke-miterlimit:10;" d="M 188.25 95.359375 L 202.972656 116.304688 "/>
<path style="fill:none;stroke-width:1.2;stroke-linecap:butt;stroke-linejoin:miter;stroke:rgb(0%,0%,0%);stroke-opacity:1;stroke-miterlimit:10;" d="M 228.472656 114.027344 L 239.25 90.804688 "/>
<path style="fill:none;stroke-width:1.2;stroke-linecap:butt;stroke-linejoin:miter;stroke:rgb(0%,0%,0%);stroke-opacity:1;stroke-miterlimit:10;" d="M 239.25 90.804688 L 224.527344 69.859375 "/>
<path style="fill:none;stroke-width:1.2;stroke-linecap:butt;stroke-linejoin:miter;stroke:rgb(0%,0%,0%);stroke-opacity:1;stroke-miterlimit:10;" d="M 232.847656 92.175781 L 221.070312 75.417969 "/>
<path style="fill:none;stroke-width:1.2;stroke-linecap:butt;stroke-linejoin:miter;stroke:rgb(0%,0%,0%);stroke-opacity:1;stroke-miterlimit:10;" d="M 239.25 90.804688 L 252 89.664062 "/>
<path style="fill:none;stroke-width:1.2;stroke-linecap:butt;stroke-linejoin:miter;stroke:rgb(20%,80%,80%);stroke-opacity:1;stroke-miterlimit:10;" d="M 252 89.664062 L 264.75 88.527344 "/>
<path style="fill:none;stroke-width:1.2;stroke-linecap:butt;stroke-linejoin:miter;stroke:rgb(0%,0%,0%);stroke-opacity:1;stroke-miterlimit:10;" d="M 224.527344 69.859375 L 199.027344 72.136719 "/>
<path style="fill:none;stroke-width:1.2;stroke-linecap:butt;stroke-linejoin:miter;stroke:rgb(0%,0%,0%);stroke-opacity:1;stroke-miterlimit:10;" d="M 199.027344 72.136719 L 188.25 95.359375 "/>
<path style="fill:none;stroke-width:1.2;stroke-linecap:butt;stroke-linejoin:miter;stroke:rgb(0%,0%,0%);stroke-opacity:1;stroke-miterlimit:10;" d="M 203.414062 76.996094 L 194.792969 95.574219 "/>
<path style=" stroke:none;fill-rule:nonzero;fill:rgb(100%,100%,100%);fill-opacity:1;" d="M 261.75 82.027344 L 268.75 82.027344 L 268.75 95.027344 L 261.75 95.027344 Z M 261.75 82.027344 "/>
<g style="fill:rgb(20%,80%,80%);fill-opacity:1;">
  <use xlink:href="#glyph0-3" x="261.75" y="91.928711"/>
</g>
</g>
</svg>

<svg xmlns="http://www.w3.org/2000/svg" xmlns:xlink="http://www.w3.org/1999/xlink" width="300pt" height="300pt" viewBox="0 0 300 300"><defs><symbol overflow="visible"><path d="M.547 1.938V-7.75h5.5v9.688zm.625-.61h4.266v-8.47H1.171zm0 0"/></symbol><symbol overflow="visible" id="a"><path d="M4.328-7.28c-.78 0-1.406.296-1.875.89-.46.585-.687 1.382-.687 2.39 0 1.012.226 1.813.687 2.406.47.586 1.094.875 1.875.875.79 0 1.414-.288 1.875-.874.457-.593.688-1.394.688-2.406 0-1.008-.23-1.805-.687-2.39-.46-.594-1.086-.89-1.875-.89zm0-.892c1.125 0 2.024.383 2.703 1.14C7.708-6.28 8.048-5.27 8.048-4c0 1.262-.34 2.273-1.016 3.03C6.353-.22 5.454.157 4.33.157S2.3-.22 1.625-.97c-.668-.75-1-1.757-1-3.03 0-1.27.332-2.28 1-3.03.676-.76 1.578-1.142 2.703-1.142zm0 0"/></symbol><symbol overflow="visible" id="b"><path d="M1.078-8.016h1.47l3.546 6.704v-6.704h1.062V0H5.688L2.124-6.703V0H1.078zm0 0"/></symbol><symbol overflow="visible" id="c"><path d="M1.078-8.016h4.61v.907H2.171v2.36h3.172v.922H2.172V0H1.078zm0 0"/></symbol></defs><g><path fill="#fff" d="M0 0h300v300H0z"/><path d="M35.25 109.027l7.363 10.473" stroke-width="1.2" stroke="#000" stroke-miterlimit="10" fill="none"/><path d="M42.613 119.5l7.36 10.473M49.973 129.973l12.75-1.137" stroke-width="1.2" stroke="#f00" stroke-miterlimit="10" fill="none"/><path d="M62.723 128.836l12.75-1.14" stroke-width="1.2" stroke="#000" stroke-miterlimit="10" fill="none"/><path d="M45.973 123.473h9v13h-9zm0 0" fill="#fff"/><use xlink:href="#a" x="45.973" y="133.374" fill="#f00"/><path d="M75.473 127.695l10.777-23.222M82.016 127.91l8.62-18.578M90.195 148.64l-14.722-20.945M86.25 104.473l25.5-2.278M111.75 102.195l14.723 20.946M108.293 107.754l11.78 16.754M126.473 123.14l-10.778 23.223M115.695 146.363l-25.5 2.278M112.61 140.59l-20.4 1.824M115.695 146.363l14.723 20.946M130.418 167.31l12.75-1.142" stroke-width="1.2" stroke="#000" stroke-miterlimit="10" fill="none"/><path d="M143.168 166.168l12.75-1.14M155.918 165.027l7.363 10.473" stroke-width="1.2" stroke="#00f" stroke-miterlimit="10" fill="none"/><path d="M163.28 175.5l7.36 10.473M166.695 141.805l-5.386 11.613" stroke-width="1.2" stroke="#000" stroke-miterlimit="10" fill="none"/><path d="M161.31 153.418l-5.392 11.61" stroke-width="1.2" stroke="#00f" stroke-miterlimit="10" fill="none"/><path d="M151.918 158.527h8v13h-8zm0 0" fill="#fff"/><use xlink:href="#b" x="151.918" y="168.429" fill="#00f"/><path d="M170.64 185.973l-5.386 11.613" stroke-width="1.2" stroke="#000" stroke-miterlimit="10" fill="none"/><path d="M165.254 197.586l-5.39 11.61" stroke-width="1.2" stroke="#00f" stroke-miterlimit="10" fill="none"/><path d="M175.027 190.832l-4.308 9.29" stroke-width="1.2" stroke="#000" stroke-miterlimit="10" fill="none"/><path d="M170.72 200.12l-4.314 9.29" stroke-width="1.2" stroke="#00f" stroke-miterlimit="10" fill="none"/><path d="M196.14 183.695l-25.5 2.278" stroke-width="1.2" stroke="#000" stroke-miterlimit="10" fill="none"/><path d="M159.863 209.195l7.364 10.473" stroke-width="1.2" stroke="#00f" stroke-miterlimit="10" fill="none"/><path d="M167.227 219.668l7.36 10.473" stroke-width="1.2" stroke="#000" stroke-miterlimit="10" fill="none"/><path d="M155.863 202.695h8v13h-8zm0 0" fill="#fff"/><use xlink:href="#b" x="155.863" y="212.597" fill="#00f"/><path d="M174.586 230.14l12.75-1.14" stroke-width="1.2" stroke="#000" stroke-miterlimit="10" fill="none"/><path d="M187.336 229l12.75-1.137" stroke-width="1.2" stroke="#00f" stroke-miterlimit="10" fill="none"/><path d="M176.602 223.914l10.2-.914" stroke-width="1.2" stroke="#000" stroke-miterlimit="10" fill="none"/><path d="M186.8 223l10.2-.91M200.086 227.863l5.39-11.613" stroke-width="1.2" stroke="#00f" stroke-miterlimit="10" fill="none"/><path d="M205.477 216.25l5.386-11.61" stroke-width="1.2" stroke="#000" stroke-miterlimit="10" fill="none"/><path d="M196.086 221.363h8v13h-8zm0 0" fill="#fff"/><use xlink:href="#b" x="196.086" y="231.265" fill="#00f"/><path d="M210.863 204.64l-14.722-20.945M204.465 206.008l-11.778-16.754M196.14 183.695l5.39-11.613" stroke-width="1.2" stroke="#000" stroke-miterlimit="10" fill="none"/><path d="M201.53 172.082l5.388-11.61M206.918 160.473L199.558 150" stroke-width="1.2" stroke="#00f" stroke-miterlimit="10" fill="none"/><path d="M199.56 150l-7.365-10.473" stroke-width="1.2" stroke="#000" stroke-miterlimit="10" fill="none"/><path d="M200.52 161.844l-5.89-8.38" stroke-width="1.2" stroke="#00f" stroke-miterlimit="10" fill="none"/><path d="M194.63 153.465l-5.892-8.38" stroke-width="1.2" stroke="#000" stroke-miterlimit="10" fill="none"/><path d="M202.918 153.973h8v13h-8zm0 0" fill="#fff"/><use xlink:href="#b" x="202.918" y="163.874" fill="#00f"/><path d="M192.195 139.527l-25.5 2.278M192.195 139.527l10.778-23.222M169.16 140.074l-7.363-10.472" stroke-width="1.2" stroke="#000" stroke-miterlimit="10" fill="none"/><path d="M161.797 129.602l-7.36-10.473" stroke-width="1.2" stroke="#f00" stroke-miterlimit="10" fill="none"/><path d="M164.23 143.54l-7.36-10.474" stroke-width="1.2" stroke="#000" stroke-miterlimit="10" fill="none"/><path d="M156.87 133.066l-7.362-10.472" stroke-width="1.2" stroke="#f00" stroke-miterlimit="10" fill="none"/><path d="M142.973 114.36h9v13h-9zm0 0" fill="#fff"/><use xlink:href="#a" x="142.973" y="124.261" fill="#f00"/><path d="M202.973 116.305l25.5-2.278M204.988 110.078l20.4-1.824M188.25 95.36l14.723 20.945M228.473 114.027l10.777-23.222M239.25 90.805L224.527 69.86M232.848 92.176L221.07 75.418M239.25 90.805l12.75-1.14" stroke-width="1.2" stroke="#000" stroke-miterlimit="10" fill="none"/><path d="M252 89.664l12.75-1.137" stroke-width="1.2" stroke="#3cc" stroke-miterlimit="10" fill="none"/><path d="M224.527 69.86l-25.5 2.277M199.027 72.137L188.25 95.36M203.414 76.996l-8.62 18.578" stroke-width="1.2" stroke="#000" stroke-miterlimit="10" fill="none"/><path d="M261.75 82.027h7v13h-7zm0 0" fill="#fff"/><use xlink:href="#c" x="261.75" y="91.929" fill="#3cc"/></g></svg>
